flags/cf.svg

<svg width="512" height="512" viewBox="0 0 512 512" fill="none" xmlns="http://www.w3.org/2000/svg">
<path d="M0 384L256 320L512 384V512H0V384Z" fill="var(--flag-palette-yellow, #ffda44)"/>
<path d="M0 256L256 192L512 256V384H0V256Z" fill="var(--flag-palette-green, #6da544)"/>
<path d="M0 128L256 64L512 128V256H0V128Z" fill="var(--flag-palette-white, #eeeeee)"/>
<rect width="512" height="128" fill="var(--flag-palette-blue, #0052b4)"/>
<rect x="320" y="0.000488281" width="512" height="128" transform="rotate(90 320 0.000488281)" fill="var(--flag-palette-bright-red, #d80027)"/>
<path d="M95.9999 27.0884L104.287 52.5939H131.105L109.409 68.3572L117.696 93.8628L95.9999 78.0995L74.3036 93.8628L82.5908 68.3572L60.8945 52.5939H87.7126L95.9999 27.0884Z" fill="var(--flag-palette-yellow, #ffda44)"/>
</svg>

<svg xmlns="http://www.w3.org/2000/svg" width="512" height="512" fill="none"><path fill="var(--flag-palette-yellow, #ffda44)" d="m0 384 256-64 256 64v128H0z"/><path fill="var(--flag-palette-green, #6da544)" d="m0 256 256-64 256 64v128H0z"/><path fill="var(--flag-palette-white, #eeeeee)" d="m0 128 256-64 256 64v128H0z"/><path fill="var(--flag-palette-blue, #0052b4)" d="M0 0h512v128H0z"/><path fill="var(--flag-palette-bright-red, #d80027)" d="M320 0v512H192V0z"/><path fill="var(--flag-palette-yellow, #ffda44)" d="m96 27 8.3 25.6H131l-21.7 15.8 8.3 25.5L96 78 74.3 93.9l8.3-25.5-21.7-15.8h26.8z"/></svg>
